packages/foundations/assets/icons/functional/images/medical/medical_cross.svg

<svg xmlns="http://www.w3.org/2000/svg" width="32" height="32" fill="none"><path fill="#1A1C1F" fill-rule="evenodd" d="M13.347 4.081c-.555.12-1.007.377-1.454.825-.394.395-.564.668-.78 1.254-.088.24-.1.491-.115 2.543l-.018 2.276-2.25.02c-2.469.023-2.458.022-3.157.374-.388.196-1.007.806-1.215 1.196a4 4 0 0 0-.252.689C4.008 13.638 4 13.854 4 16s.008 2.362.106 2.742c.133.522.325.877.683 1.265.353.382.724.629 1.238.825l.4.153 2.277.017 2.276.018.018 2.276c.019 2.486.007 2.38.354 3.104.176.366.838 1.042 1.217 1.243.152.08.462.193.689.251.38.098.596.106 2.742.106s2.362-.008 2.742-.106a2.7 2.7 0 0 0 1.265-.683c.382-.353.629-.724.825-1.238l.153-.4.017-2.277.018-2.276 2.276-.018 2.277-.017.4-.153a3.1 3.1 0 0 0 1.238-.825c.358-.388.55-.743.683-1.265.098-.38.106-.596.106-2.742s-.008-2.362-.106-2.742a4 4 0 0 0-.252-.689c-.208-.39-.827-1-1.215-1.196-.699-.352-.688-.351-3.157-.374l-2.25-.02-.018-2.276-.017-2.276-.153-.4c-.388-1.02-1.197-1.735-2.203-1.948-.506-.108-4.787-.106-5.282.002m5.231 2.122c.108.082.244.243.302.358.103.201.107.318.107 3.33v3.122h3.122c2.993 0 3.13.005 3.326.105.259.132.472.382.512.604.017.094.024 1.183.016 2.42l-.016 2.248-.164.205c-.328.41-.151.391-3.663.392h-3.133v3.122c0 2.993-.005 3.13-.105 3.326a.98.98 0 0 1-.717.537c-.195.041-.97.055-2.361.044-2.24-.017-2.23-.016-2.504-.318-.296-.324-.287-.21-.287-3.587v-3.122l-3.195-.014-3.195-.015-.205-.164c-.405-.324-.395-.243-.379-2.854l.014-2.324.15-.196a1.2 1.2 0 0 1 .358-.302c.201-.103.318-.107 3.33-.107h3.122V9.891c0-2.964.005-3.132.102-3.32.118-.23.297-.409.485-.485.084-.034.987-.05 2.458-.043l2.324.01z"/></svg>

<svg width="32" height="32" viewBox="0 0 32 32" fill="none" xmlns="http://www.w3.org/2000/svg"><path d="M13.347 4.081 C 12.792 4.201,12.340 4.458,11.893 4.906 C 11.499 5.301,11.329 5.574,11.113 6.160 C 11.025 6.400,11.013 6.651,10.998 8.703 L 10.980 10.979 8.730 10.999 C 6.261 11.022,6.272 11.021,5.573 11.373 C 5.185 11.569,4.566 12.179,4.358 12.569 C 4.277 12.721,4.164 13.031,4.106 13.258 C 4.008 13.638,4.000 13.854,4.000 16.000 C 4.000 18.146,4.008 18.362,4.106 18.742 C 4.239 19.264,4.431 19.619,4.789 20.007 C 5.142 20.389,5.513 20.636,6.027 20.832 L 6.427 20.985 8.704 21.002 L 10.980 21.020 10.998 23.296 C 11.017 25.782,11.005 25.676,11.352 26.400 C 11.528 26.766,12.190 27.442,12.569 27.643 C 12.721 27.723,13.031 27.836,13.258 27.894 C 13.638 27.992,13.854 28.000,16.000 28.000 C 18.146 28.000,18.362 27.992,18.742 27.894 C 19.264 27.761,19.619 27.569,20.007 27.211 C 20.389 26.858,20.636 26.487,20.832 25.973 L 20.985 25.573 21.002 23.296 L 21.020 21.020 23.296 21.002 L 25.573 20.985 25.973 20.832 C 26.487 20.636,26.858 20.389,27.211 20.007 C 27.569 19.619,27.761 19.264,27.894 18.742 C 27.992 18.362,28.000 18.146,28.000 16.000 C 28.000 13.854,27.992 13.638,27.894 13.258 C 27.836 13.031,27.723 12.721,27.642 12.569 C 27.434 12.179,26.815 11.569,26.427 11.373 C 25.728 11.021,25.739 11.022,23.270 10.999 L 21.020 10.979 21.002 8.703 L 20.985 6.427 20.832 6.027 C 20.444 5.007,19.635 4.292,18.629 4.079 C 18.123 3.971,13.842 3.973,13.347 4.081 M18.578 6.203 C 18.686 6.285,18.822 6.446,18.880 6.561 C 18.983 6.762,18.987 6.879,18.987 9.891 L 18.987 13.013 22.109 13.013 C 25.102 13.013,25.239 13.018,25.435 13.118 C 25.694 13.250,25.907 13.500,25.947 13.722 C 25.964 13.816,25.971 14.905,25.963 16.142 L 25.947 18.390 25.783 18.595 C 25.455 19.005,25.632 18.986,22.120 18.987 L 18.987 18.987 18.987 22.109 C 18.987 25.102,18.982 25.239,18.882 25.435 C 18.733 25.728,18.499 25.903,18.165 25.972 C 17.970 26.013,17.195 26.027,15.804 26.016 C 13.564 25.999,13.574 26.000,13.300 25.698 C 13.004 25.374,13.013 25.488,13.013 22.111 L 13.013 18.989 9.818 18.975 L 6.623 18.960 6.418 18.796 C 6.013 18.472,6.023 18.553,6.039 15.942 L 6.053 13.618 6.203 13.422 C 6.285 13.314,6.446 13.178,6.561 13.120 C 6.762 13.017,6.879 13.013,9.891 13.013 L 13.013 13.013 13.013 9.891 C 13.013 6.927,13.018 6.759,13.115 6.571 C 13.233 6.341,13.412 6.162,13.600 6.086 C 13.684 6.052,14.587 6.036,16.058 6.043 L 18.382 6.053 18.578 6.203 " fill="#1A1C1F" stroke="none" fill-rule="evenodd"></path></svg>
